package/converter/svg/regular/border-all.svg

<svg xmlns="http://www.w3.org/2000/svg" viewBox="0 0 448 512"><!-- Font Awesome Pro 6.0.0-alpha2 by @fontawesome - https://fontawesome.com License - https://fontawesome.com/license (Commercial License) --><path d="M384 32H64C28.801 32 0 60.799 0 96V416C0 451.199 28.801 480 64 480H384C419.199 480 448 451.199 448 416V96C448 60.799 419.199 32 384 32ZM200 432H64C55.164 432 48 424.836 48 416V280H200V432ZM200 232H48V96C48 87.162 55.164 80 64 80H200V232ZM400 416C400 424.836 392.836 432 384 432H248V280H400V416ZM400 232H248V80H384C392.836 80 400 87.162 400 96V232Z"/></svg>

<svg xmlns="http://www.w3.org/2000/svg" viewBox="0 0 448 512"><!--! Font Awesome Pro 6.6.0 by @fontawesome - https://fontawesome.com License - https://fontawesome.com/license (Commercial License) Copyright 2024 Fonticons, Inc. --><path d="M384 80c8.8 0 16 7.2 16 16l0 136-152 0 0-152 136 0zm16 200l0 136c0 8.8-7.2 16-16 16l-136 0 0-152 152 0zM200 232L48 232 48 96c0-8.8 7.2-16 16-16l136 0 0 152zM48 280l152 0 0 152L64 432c-8.8 0-16-7.2-16-16l0-136zM64 32C28.7 32 0 60.7 0 96L0 416c0 35.3 28.7 64 64 64l320 0c35.3 0 64-28.7 64-64l0-320c0-35.3-28.7-64-64-64L64 32z"/></svg>
